X:22
T:Rousinholet Que Contes
M:3/4
L:1/4
N:La Bourre 4th edition 1929, page 36
Z:Steve Mansfield www.lesession.co.uk May 2012
K:G
DGA | B2c | (d e2 | d/c/ B2) | Bde |
d2 A | G2 z | DGA | B2c | (d e2 | d/c/ B2) | Bde |
d2 A | G3 | GAB | c2 A | G2 F | GA _B | c2 _B |
!fermata!A3 | DGA | B2c | (d e2 | d/c/ B2) | Bde | d2A | !fermata! G3 |]

